public/pin.svg

<!DOCTYPE svg PUBLIC "-//W3C//DTD SVG 1.1//EN" "http://www.w3.org/Graphics/SVG/1.1/DTD/svg11.dtd">
<!-- Uploaded to: SVG Repo, www.svgrepo.com, Transformed by: SVG Repo Mixer Tools -->
<svg xmlns:dc="http://purl.org/dc/elements/1.1/" xmlns:cc="http://creativecommons.org/ns#" xmlns:rdf="http://www.w3.org/1999/02/22-rdf-syntax-ns#" xmlns:svg="http://www.w3.org/2000/svg" xmlns="http://www.w3.org/2000/svg" xmlns:sodipodi="http://sodipodi.sourceforge.net/DTD/sodipodi-0.dtd" xmlns:inkscape="http://www.inkscape.org/namespaces/inkscape" width="800px" height="800px" viewBox="0 0 447.99999 447.99999" id="svg2" version="1.1" inkscape:version="0.91 r13725" sodipodi:docname="pin.svg" fill="#002741">
<g id="SVGRepo_bgCarrier" stroke-width="0"/>
<g id="SVGRepo_tracerCarrier" stroke-linecap="round" stroke-linejoin="round"/>
<g id="SVGRepo_iconCarrier"> <title id="title3373">pin</title> <defs id="defs4"/> <sodipodi:namedview id="base" pagecolor="#ffffff" bordercolor="#666666" borderopacity="1.0" inkscape:pageopacity="0.0" inkscape:pageshadow="2" inkscape:zoom="1.4142136" inkscape:cx="196.64053" inkscape:cy="200.30519" inkscape:document-units="px" inkscape:current-layer="layer1" showgrid="true" inkscape:snap-bbox="true" inkscape:bbox-nodes="true" units="px" inkscape:window-width="1169" inkscape:window-height="924" inkscape:window-x="364" inkscape:window-y="364" inkscape:window-maximized="0" inkscape:object-nodes="true"> <inkscape:grid type="xygrid" id="grid3336" spacingx="16" spacingy="16" empspacing="2"/> </sodipodi:namedview> <metadata id="metadata7"> <rdf:rdf> <cc:work rdf:about=""> <dc:format>image/svg+xml</dc:format> <dc:type rdf:resource="http://purl.org/dc/dcmitype/StillImage"/> <dc:title>pin</dc:title> </cc:work> </rdf:rdf> </metadata> <g inkscape:label="Layer 1" inkscape:groupmode="layer" id="layer1" transform="translate(0,-604.36224)"> <flowroot xml:space="preserve" id="flowRoot3338" style="font-style:normal;font-weight:normal;font-size:40px;line-height:125%;font-family:sans-serif;letter-spacing:0px;word-spacing:0px;fill:#000000;fill-opacity:1;stroke:none;stroke-width:1px;stroke-linecap:butt;stroke-linejoin:miter;stroke-opacity:1" transform="translate(0,698.0315)"> <flowregion id="flowRegion3340"> <rect id="rect3342" width="360" height="360" x="0" y="-5.669281"/> </flowregion> <flowpara id="flowPara3344"/> </flowroot> <flowroot xml:space="preserve" id="flowRoot3371" style="font-style:normal;font-weight:normal;font-size:40px;line-height:125%;font-family:sans-serif;letter-spacing:0px;word-spacing:0px;fill:#000000;fill-opacity:1;stroke:none;stroke-width:1px;stroke-linecap:butt;stroke-linejoin:miter;stroke-opacity:1"> <flowregion id="flowRegion3373"> <rect id="rect3375" width="85" height="85" x="5" y="5"/> </flowregion> <flowpara id="flowPara3377"/> </flowroot> <flowroot xml:space="preserve" id="flowRoot3404" style="font-style:normal;font-weight:normal;font-size:40px;line-height:125%;font-family:sans-serif;letter-spacing:0px;word-spacing:0px;fill:#000000;fill-opacity:1;stroke:none;stroke-width:1px;stroke-linecap:butt;stroke-linejoin:miter;stroke-opacity:1"> <flowregion id="flowRegion3406"> <rect id="rect3408" width="65" height="50" x="15" y="20"/> </flowregion> <flowpara id="flowPara3410"/> </flowroot> <flowroot xml:space="preserve" id="flowRoot3437" style="font-style:normal;font-weight:normal;font-size:40px;line-height:125%;font-family:sans-serif;letter-spacing:0px;word-spacing:0px;fill:#000000;fill-opacity:1;stroke:none;stroke-width:1px;stroke-linecap:butt;stroke-linejoin:miter;stroke-opacity:1"> <flowregion id="flowRegion3439"> <rect id="rect3441" width="80" height="75" x="5" y="5"/> </flowregion> <flowpara id="flowPara3443"/> </flowroot> <text sodipodi:linespacing="125%" id="text3481" y="1009.7125" x="51.231663" style="font-style:normal;font-variant:normal;font-weight:400;font-size:13.8125px;line-height:125%;font-family:Calibri;text-align:start;letter-spacing:0px;word-spacing:0px;text-anchor:start;fill:#000000;fill-opacity:1;stroke:none" xml:space="preserve"> <tspan id="tspan3483" y="0" x="0" sodipodi:role="line"> <tspan id="tspan3485" style="font-style:normal;font-variant:normal;font-weight:400;font-size:13.8125px;font-family:Calibri;fill:#000000" dy="0" dx="0"/> </tspan> </text> <text sodipodi:linespacing="125%" id="text3698" y="1080.1998" x="82.929802" style="font-style:normal;font-variant:normal;font-weight:400;font-size:13.8125px;line-height:125%;font-family:Calibri;text-align:start;letter-spacing:0px;word-spacing:0px;text-anchor:start;fill:#000000;fill-opacity:1;stroke:none" xml:space="preserve"> <tspan id="tspan3700" y="0" x="0" sodipodi:role="line"> <tspan id="tspan3702" style="font-style:normal;font-variant:normal;font-weight:400;font-size:13.8125px;font-family:Calibri;fill:#000000" dy="0" dx="0"/> </tspan> </text> <text sodipodi:linespacing="125%" id="text3917" y="1331.0359" x="414.3045" style="font-style:normal;font-variant:normal;font-weight:400;font-size:82.5056076px;line-height:125%;font-family:Calibri;text-align:start;letter-spacing:0px;word-spacing:0px;text-anchor:start;fill:#000000;fill-opacity:1;stroke:none" xml:space="preserve" transform="scale(1.0089379,0.99114132)"> <tspan id="tspan3919" y="0" x="0" sodipodi:role="line"> <tspan id="tspan3921" style="font-style:normal;font-variant:normal;font-weight:400;font-size:82.5056076px;font-family:Calibri;fill:#000000" dy="0" dx="0"/> </tspan> </text> <text sodipodi:linespacing="125%" id="text3980" y="1087.3585" x="85.308571" style="font-style:normal;font-variant:normal;font-weight:400;font-size:13.8125px;line-height:125%;font-family:Calibri;text-align:start;letter-spacing:0px;word-spacing:0px;text-anchor:start;fill:#000000;fill-opacity:1;stroke:none" xml:space="preserve"> <tspan id="tspan3982" y="0" x="0" sodipodi:role="line"> <tspan id="tspan3984" style="font-style:normal;font-variant:normal;font-weight:400;font-size:13.8125px;font-family:Calibri;fill:#000000" dy="0" dx="0"/> </tspan> </text> <g style="font-style:normal;font-variant:normal;font-weight:400;font-size:13.8125px;line-height:125%;font-family:Calibri;text-align:start;letter-spacing:0px;word-spacing:0px;text-anchor:start;fill:#000000;fill-opacity:1;stroke:none" id="text4267" transform="matrix(6.2024074,0,0,6.2016826,-62.869915,-5357.8353)"/> <text sodipodi:linespacing="125%" id="text4331" y="1083.7958" x="83.372887" style="font-style:normal;font-variant:normal;font-weight:400;font-size:13.8125px;line-height:125%;font-family:Calibri;text-align:start;letter-spacing:0px;word-spacing:0px;text-anchor:start;fill-opacity:1;stroke:none" xml:space="preserve"> <tspan id="tspan4333" y="0" x="0" sodipodi:role="line"> <tspan id="tspan4335" style="font-style:normal;font-variant:normal;font-weight:400;font-size:13.8125px;font-family:Calibri" dy="0" dx="0"/> </tspan> </text> <g style="font-style:normal;font-variant:normal;font-weight:400;font-size:13.8125px;line-height:125%;font-family:Calibri;text-align:start;letter-spacing:0px;word-spacing:0px;text-anchor:start;fill:#000000;fill-opacity:1;stroke:none" id="text4394" transform="matrix(7.5669371,0,0,7.5622391,-98.504057,-6778.9852)"/> <text sodipodi:linespacing="125%" id="text4519" y="1280.7061" x="411.78085" style="font-style:normal;font-variant:normal;font-weight:400;font-size:73.50739288px;line-height:125%;font-family:Calibri;text-align:start;letter-spacing:0px;word-spacing:0px;text-anchor:start;fill-opacity:1;stroke:none" xml:space="preserve"> <tspan id="tspan4521" y="0" x="0" sodipodi:role="line"> <tspan id="tspan4523" style="font-style:normal;font-variant:normal;font-weight:400;font-size:73.50739288px;font-family:Calibri" dy="0" dx="0"/> </tspan> </text> <g style="font-style:normal;font-variant:normal;font-weight:400;font-size:16.91569519px;line-height:125%;font-family:'Segoe UI Symbol';text-align:start;letter-spacing:0px;word-spacing:0px;text-anchor:start;fill-opacity:1;stroke:none" id="text4955" transform="matrix(27.819263,0,0,27.789276,-278.71626,-27667.673)"> <path style="font-style:normal;font-variant:normal;font-weight:400;font-size:16.91569519px;font-family:'Segoe UI Symbol'" d="m 26.122772,1023.1298 c -0.763949,0.8194 -1.845113,1.0275 -2.875705,0.5757 -1.172866,1.1728 -2.27798,2.2818 -3.450846,3.4546 0.796409,1.4944 0.650551,2.8355 -0.575142,4.0303 l -2.875705,-2.303 -6.326551,4.6061 4.601128,-6.3334 -2.300564,-2.8788 c 1.194787,-1.2256 2.531653,-1.3722 4.025987,-0.5758 1.172866,-1.1729 2.277981,-2.2817 3.450847,-3.4546 -0.451862,-1.0306 -0.24408,-2.1148 0.575141,-2.8788 1.879129,1.883 3.879031,3.8718 5.75141,5.7577 z" id="path4979" inkscape:connector-curvature="0" sodipodi:nodetypes="cccccccccccc"/> </g> <g style="font-style:normal;font-variant:normal;font-weight:400;font-size:13.8125px;line-height:125%;font-family:Calibri;text-align:start;letter-spacing:0px;word-spacing:0px;text-anchor:start;fill-opacity:1;stroke:none" id="text4961" transform="matrix(6.2023754,0,0,6.197438,-62.02324,-5352.6404)"/> </g> </g>
</svg>

<svg width="800" height="800" viewBox="0 0 448 448" xmlns="http://www.w3.org/2000/svg" xmlns:xlink="http://www.w3.org/1999/xlink" id="svg2" fill="#002741" overflow="hidden"><g id="SVGRepo_bgCarrier" stroke-width="0"></g><g id="SVGRepo_tracerCarrier" stroke-linecap="round" stroke-linejoin="round"></g><g id="SVGRepo_iconCarrier"><defs id="defs4"></defs><g id="layer1" transform="matrix(1 0 0 1 0 -604.362)"><text id="text3481" fill="#000000" font-family="Calibri" font-weight="400" font-size="13.8125" xml:space="preserve" x="51.2317" y="1009.71"> <tspan x="0" y="0"> <tspan font-size="13.8125" dx="0" dy="0"></tspan> </tspan> </text><text id="text3698" fill="#000000" font-family="Calibri" font-weight="400" font-size="13.8125" xml:space="preserve" x="82.9298" y="1080.2"> <tspan x="0" y="0"> <tspan font-size="13.8125" dx="0" dy="0"></tspan> </tspan> </text><text id="text3917" fill="#000000" font-family="Calibri" font-weight="400" font-size="82.5056" xml:space="preserve" transform="scale(1.00894 0.991141)" x="414.305" y="1331.04"> <tspan x="0" y="0"> <tspan font-size="82.5056" dx="0" dy="0"></tspan> </tspan> </text><text id="text3980" fill="#000000" font-family="Calibri" font-weight="400" font-size="13.8125" xml:space="preserve" x="85.3086" y="1087.36"> <tspan x="0" y="0"> <tspan font-size="13.8125" dx="0" dy="0"></tspan> </tspan> </text><g id="text4267" fill="#000000" font-family="Calibri" font-weight="400" font-size="13.8125" transform="matrix(6.20241 0 0 6.20168 -62.8699 -5357.84)"></g><text id="text4331" font-family="Calibri" font-weight="400" font-size="13.8125" xml:space="preserve" x="83.3729" y="1083.8"> <tspan x="0" y="0"> <tspan font-size="13.8125" dx="0" dy="0"></tspan> </tspan> </text><g id="text4394" fill="#000000" font-family="Calibri" font-weight="400" font-size="13.8125" transform="matrix(7.56694 0 0 7.56224 -98.5041 -6778.99)"></g><text id="text4519" font-family="Calibri" font-weight="400" font-size="73.5074" xml:space="preserve" x="411.781" y="1280.71"> <tspan x="0" y="0"> <tspan font-size="73.5074" dx="0" dy="0"></tspan> </tspan> </text><g id="text4955" font-family="Segoe UI Symbol" font-weight="400" font-size="16.9157" transform="matrix(27.8193 0 0 27.7893 -278.716 -27667.7)"><path d="M26.1228 1023.13C25.3588 1023.95 24.2777 1024.16 23.2471 1023.71 22.0742 1024.88 20.9691 1025.99 19.7962 1027.16 20.5926 1028.65 20.4468 1030 19.2211 1031.19L16.3454 1028.89 10.0188 1033.49 14.62 1027.16 12.3194 1024.28C13.5142 1023.06 14.851 1022.91 16.3454 1023.71 17.5182 1022.53 18.6234 1021.42 19.7962 1020.25 19.3444 1019.22 19.5521 1018.14 20.3714 1017.37 22.2505 1019.26 24.2504 1021.24 26.1228 1023.13Z" id="path4979" font-size="16.9157"/></g><g id="text4961" font-family="Calibri" font-weight="400" font-size="13.8125" transform="matrix(6.20238 0 0 6.19744 -62.0232 -5352.64)"></g></g></g></svg>
